assets/svgs/food-drink/food-prepared/FoodPrepared4.svg

<svg id="emoji" viewBox="0 0 72 72" xmlns="http://www.w3.org/2000/svg">
  <g id="color">
    <g>
      <rect x="11.9698" y="11.9299" rx="1.9608" width="47.9343" height="47.9343" fill="#f4aa41"/>
      <path fill="#e27022" d="M58.5517,12.5333H14.5389a1.9607,1.9607,0,0,0-1.9607,1.9608v3.5181H48.0065a1.9607,1.9607,0,0,1,1.9607,1.9607V60.4676h8.5845a1.9607,1.9607,0,0,0,1.9607-1.9608V14.4941A1.9607,1.9607,0,0,0,58.5517,12.5333Z"/>
      <path fill="#e27022" d="M24.9477,19.6574H19.7133a.2332.2332,0,0,0-.2332.2331v.9013h3.8912a.2332.2332,0,0,1,.2332.2331v4.3332h1.3432a.2332.2332,0,0,0,.2332-.2332V19.8905A.2332.2332,0,0,0,24.9477,19.6574Z"/>
      <path fill="#e27022" d="M38.5541,19.6574H33.32a.2332.2332,0,0,0-.2332.2331v.9013h3.8911a.2332.2332,0,0,1,.2332.2331v4.3332h1.3432a.2332.2332,0,0,0,.2333-.2332V19.8905A.2332.2332,0,0,0,38.5541,19.6574Z"/>
      <path fill="#e27022" d="M51.8732,19.6574H46.6388a.2331.2331,0,0,0-.2331.2331v.9013h3.8911a.2332.2332,0,0,1,.2332.2331v4.3332h1.3432a.2332.2332,0,0,0,.2332-.2332V19.8905A.2332.2332,0,0,0,51.8732,19.6574Z"/>
      <path fill="#e27022" d="M24.9477,33.3585H19.7133a.2332.2332,0,0,0-.2332.2332v.9012h3.8912a.2332.2332,0,0,1,.2332.2332v4.3332h1.3432a.2332.2332,0,0,0,.2332-.2333V33.5917A.2332.2332,0,0,0,24.9477,33.3585Z"/>
      <path fill="#e27022" d="M38.5384,33.3743H33.304a.2332.2332,0,0,0-.2332.2331v.9013H36.962a.2332.2332,0,0,1,.2332.2331V39.075h1.3432a.2332.2332,0,0,0,.2332-.2332V33.6074A.2332.2332,0,0,0,38.5384,33.3743Z"/>
      <path fill="#e27022" d="M51.8852,33.3585H46.6508a.2333.2333,0,0,0-.2332.2332v.9012h3.8912a.2332.2332,0,0,1,.2332.2332v4.3332h1.3432a.2332.2332,0,0,0,.2332-.2333V33.5917A.2332.2332,0,0,0,51.8852,33.3585Z"/>
      <path fill="#e27022" d="M24.9477,47.06H19.7133a.2332.2332,0,0,0-.2332.2332v.9012h3.8912a.2332.2332,0,0,1,.2332.2332V52.76h1.3432a.2332.2332,0,0,0,.2332-.2332V47.2928A.2332.2332,0,0,0,24.9477,47.06Z"/>
      <path fill="#e27022" d="M38.5541,47.06H33.32a.2332.2332,0,0,0-.2332.2332v.9012h3.8911a.2332.2332,0,0,1,.2332.2332V52.76h1.3432a.2332.2332,0,0,0,.2333-.2332V47.2928A.2332.2332,0,0,0,38.5541,47.06Z"/>
      <path fill="#e27022" d="M51.8873,47.06H46.6529a.2332.2332,0,0,0-.2332.2332v.9012h3.8912a.2332.2332,0,0,1,.2332.2332V52.76h1.3432a.2332.2332,0,0,0,.2332-.2332V47.2928A.2332.2332,0,0,0,51.8873,47.06Z"/>
    </g>
  </g>
  <g id="line">
    <g>
      <rect x="11.9698" y="11.9299" rx="1.9608" width="47.9343" height="47.9343" fill="none" stroke="#000" stroke-miterlimit="10" stroke-width="2"/>
      <rect x="18.798" y="18.8517" rx="0.2991" width="7.312" height="7.312" fill="none" stroke="#000" stroke-miterlimit="10" stroke-width="2"/>
      <rect x="32.4141" y="18.8517" rx="0.2991" width="7.312" height="7.312" fill="none" stroke="#000" stroke-miterlimit="10" stroke-width="2"/>
      <rect x="45.7829" y="18.8517" rx="0.2991" width="7.312" height="7.312" fill="none" stroke="#000" stroke-miterlimit="10" stroke-width="2"/>
      <rect x="18.798" y="32.4556" rx="0.2991" width="7.312" height="7.312" fill="none" stroke="#000" stroke-miterlimit="10" stroke-width="2"/>
      <rect x="32.4141" y="32.4556" rx="0.2991" width="7.312" height="7.312" fill="none" stroke="#000" stroke-miterlimit="10" stroke-width="2"/>
      <rect x="45.7829" y="32.4556" rx="0.2991" width="7.312" height="7.312" fill="none" stroke="#000" stroke-miterlimit="10" stroke-width="2"/>
      <rect x="18.798" y="46.254" rx="0.2991" width="7.312" height="7.312" fill="none" stroke="#000" stroke-miterlimit="10" stroke-width="2"/>
      <rect x="32.4141" y="46.254" rx="0.2991" width="7.312" height="7.312" fill="none" stroke="#000" stroke-miterlimit="10" stroke-width="2"/>
      <rect x="45.7829" y="46.254" rx="0.2991" width="7.312" height="7.312" fill="none" stroke="#000" stroke-miterlimit="10" stroke-width="2"/>
    </g>
  </g>
</svg>

<svg xmlns="http://www.w3.org/2000/svg" viewBox="0 0 72 72"><rect width="47.934" height="47.934" x="11.97" y="11.93" fill="#f4aa41" rx="1.961"/><path fill="#e27022" d="M58.552 12.533H14.539a1.96 1.96 0 00-1.96 1.961v3.518h35.428a1.96 1.96 0 011.96 1.96v40.496h8.585a1.96 1.96 0 001.96-1.961V14.494a1.96 1.96 0 00-1.96-1.96z"/><path fill="#e27022" d="M24.948 19.657h-5.235a.233.233 0 00-.233.233v.902h3.891a.233.233 0 01.234.233v4.333h1.343a.233.233 0 00.233-.233V19.89a.233.233 0 00-.233-.233zM38.554 19.657H33.32a.233.233 0 00-.233.233v.902h3.89a.233.233 0 01.234.233v4.333h1.343a.233.233 0 00.234-.233V19.89a.233.233 0 00-.234-.233zM51.873 19.657H46.64a.233.233 0 00-.233.233v.902h3.89a.233.233 0 01.234.233v4.333h1.343a.233.233 0 00.233-.233V19.89a.233.233 0 00-.233-.233zM24.948 33.358h-5.235a.233.233 0 00-.233.234v.9h3.891a.233.233 0 01.234.234v4.333h1.343a.233.233 0 00.233-.233v-5.234a.233.233 0 00-.233-.233zM38.538 33.374h-5.234a.233.233 0 00-.233.233v.902h3.891a.233.233 0 01.233.233v4.333h1.343a.233.233 0 00.234-.233v-5.235a.233.233 0 00-.234-.233zM51.885 33.358h-5.234a.233.233 0 00-.233.234v.9h3.89a.233.233 0 01.234.234v4.333h1.343a.233.233 0 00.233-.233v-5.234a.233.233 0 00-.233-.233zM24.948 47.06h-5.235a.233.233 0 00-.233.233v.901h3.891a.233.233 0 01.234.234v4.332h1.343a.233.233 0 00.233-.233v-5.234a.233.233 0 00-.233-.233zM38.554 47.06H33.32a.233.233 0 00-.233.233v.901h3.89a.233.233 0 01.234.234v4.332h1.343a.233.233 0 00.234-.233v-5.234a.233.233 0 00-.234-.233zM51.887 47.06h-5.234a.233.233 0 00-.233.233v.901h3.89a.233.233 0 01.234.234v4.332h1.343a.233.233 0 00.234-.233v-5.234a.233.233 0 00-.234-.233z"/><g><g fill="none" stroke="#000" stroke-miterlimit="10" stroke-width="2"><rect width="47.934" height="47.934" x="11.97" y="11.93" rx="1.961"/><rect width="7.312" height="7.312" x="18.798" y="18.852" rx=".299"/><rect width="7.312" height="7.312" x="32.414" y="18.852" rx=".299"/><rect width="7.312" height="7.312" x="45.783" y="18.852" rx=".299"/><rect width="7.312" height="7.312" x="18.798" y="32.456" rx=".299"/><rect width="7.312" height="7.312" x="32.414" y="32.456" rx=".299"/><rect width="7.312" height="7.312" x="45.783" y="32.456" rx=".299"/><rect width="7.312" height="7.312" x="18.798" y="46.254" rx=".299"/><rect width="7.312" height="7.312" x="32.414" y="46.254" rx=".299"/><rect width="7.312" height="7.312" x="45.783" y="46.254" rx=".299"/></g></g></svg>
